public_html/images/shield.svg

<svg height="32" width="26" xmlns="http://www.w3.org/2000/svg"><path fill="#1b1b1b" fill-rule="evenodd" d="M12.96 2.03s2.82 2.8 5.59 3.48c1.69.42 3.42.49 4.47.49.62 0 .99-.02.99-.02v5c0 17.03-11.05 18.99-11.05 18.99S2 28.01 2 10.98v-5s.37.02.99.02c1.04 0 2.81-.07 4.5-.49 2.77-.68 5.47-3.48 5.47-3.48m0-2c-.39 0-.77.11-1.11.34-.08.05-2.48 2.62-4.84 3.2-1.54.38-3.19.43-4.02.43-.51 0-.83-.02-.86-.02H2c-.51 0-1 .19-1.37.54-.4.37-.63.9-.63 1.46v5c0 18.49 12.09 20.87 12.61 20.96a1.983 1.983 0 0 0 .7 0c.52-.09 12.7-2.47 12.7-20.96v-5c0-.56-.23-1.09-.63-1.47-.37-.34-.86-.53-1.37-.53h-.13c-.03 0-.35.02-.86.02-.83 0-2.45-.05-3.99-.43-1.99-.49-4.29-2.76-4.96-3.2-.33-.23-.72-.34-1.11-.34zm4.28 10.79c.39.39.39 1.02 0 1.41l-7.07 7.07c-.39.4-1.02.4-1.41 0a.996.996 0 0 1 0-1.41l7.07-7.07a.996.996 0 0 1 1.41 0zm-8.48 0a.996.996 0 0 0 0 1.41l7.07 7.07c.39.4 1.02.4 1.41 0a.996.996 0 0 0 0-1.41l-7.07-7.07a.996.996 0 0 0-1.41 0z"/></svg>

<?xml version="1.0" encoding="utf-8"?>
<!-- Generator: Avocode 2.6.0 - http://avocode.com -->
<svg height="32" width="26" xmlns:xlink="http://www.w3.org/1999/xlink" xmlns="http://www.w3.org/2000/svg" viewBox="0 0 26 32">
    <path fill="#1b1b1b" fill-rule="evenodd" d="M 12.96 2.03 C 12.96 2.03 15.78 4.83 18.55 5.51 C 20.24 5.93 21.97 6 23.02 6 C 23.64 6 24.01 5.98 24.01 5.98 C 24.01 5.98 24.01 6.61 24.01 10.98 C 24.01 28.01 12.96 29.97 12.96 29.97 C 12.96 29.97 2 28.01 2 10.98 C 2 6.61 2 5.98 2 5.98 C 2 5.98 2.37 6 2.99 6 C 4.03 6 5.8 5.93 7.49 5.51 C 10.26 4.83 12.96 2.03 12.96 2.03 M 12.96 0.03 C 12.57 0.03 12.19 0.14 11.85 0.37 C 11.77 0.42 9.37 2.99 7.01 3.57 C 5.47 3.95 3.82 4 2.99 4 C 2.48 4 2.16 3.98 2.13 3.98 C 2.09 3.98 2.04 3.98 2 3.98 C 1.49 3.98 1 4.17 0.63 4.52 C 0.23 4.89 0 5.42 0 5.98 C 0 5.98 0 10.98 0 10.98 C 0 29.47 12.09 31.85 12.61 31.94 C 12.72 31.96 12.84 31.97 12.96 31.97 C 13.08 31.97 13.2 31.96 13.31 31.94 C 13.83 31.85 26.01 29.47 26.01 10.98 C 26.01 10.98 26.01 5.98 26.01 5.98 C 26.01 5.42 25.78 4.89 25.38 4.51 C 25.01 4.17 24.52 3.98 24.01 3.98 C 23.97 3.98 23.92 3.98 23.88 3.98 C 23.85 3.98 23.53 4 23.02 4 C 22.19 4 20.57 3.95 19.03 3.57 C 17.04 3.08 14.74 0.81 14.07 0.37 C 13.74 0.14 13.35 0.03 12.96 0.03 C 12.96 0.03 12.96 0.03 12.96 0.03 Z M 17.24 10.82 C 17.63 11.21 17.63 11.84 17.24 12.23 C 17.24 12.23 10.17 19.3 10.17 19.3 C 9.78 19.7 9.15 19.7 8.76 19.3 C 8.37 18.91 8.37 18.28 8.76 17.89 C 8.76 17.89 15.83 10.82 15.83 10.82 C 16.22 10.43 16.85 10.43 17.24 10.82 Z M 8.76 10.82 C 8.37 11.21 8.37 11.84 8.76 12.23 C 8.76 12.23 15.83 19.3 15.83 19.3 C 16.22 19.7 16.85 19.7 17.24 19.3 C 17.63 18.91 17.63 18.28 17.24 17.89 C 17.24 17.89 10.17 10.82 10.17 10.82 C 9.78 10.43 9.15 10.43 8.76 10.82 Z" />
</svg>
